svg/fluentui-system-icons/ic_fluent_table_cell_edit_16_filled.svg

<svg width="16" height="16" viewBox="0 0 16 16" fill="none" xmlns="http://www.w3.org/2000/svg">
<path d="M6 5V9.98166C6.08407 9.87235 6.1754 9.76824 6.27356 9.67008L10 5.94364V5H6ZM3.5 11C2.67157 11 2 10.3284 2 9.5V6.5C2 5.67157 2.67157 5 3.5 5H5L5 11H3.5ZM6.97975 10.3772L11.8092 5.54776C12.5395 4.81741 13.7237 4.81741 14.454 5.54776C15.1843 6.27811 15.1843 7.46223 14.454 8.19258L9.62457 13.022C9.343 13.3036 8.99019 13.5033 8.60387 13.5999L7.10597 13.9744C6.45456 14.1372 5.86451 13.5472 6.02737 12.8958L6.40184 11.3979C6.49842 11.0116 6.69818 10.6588 6.97975 10.3772Z" fill="#212121"/>
</svg>

<svg xmlns="http://www.w3.org/2000/svg" width="16" height="16"><path d="M6 5v4.982c.084-.11.175-.214.274-.312L10 5.944V5H6Zm-2.5 6A1.5 1.5 0 0 1 2 9.5v-3A1.5 1.5 0 0 1 3.5 5H5v6H3.5Zm3.48-.623 4.83-4.83a1.87 1.87 0 1 1 2.644 2.646l-4.83 4.829a2.197 2.197 0 0 1-1.02.578l-1.498.374a.89.89 0 0 1-1.079-1.078l.375-1.498a2.18 2.18 0 0 1 .578-1.02Z"/></svg>
